X: 1
T:Ed Yother's Jig #1
C:Ed Yother 8/2015
C:http://edyother.com
R: Jig
M: 6/8
L: 1/8
K: Dmaj
AFD DFA | dfe d3 | Bcd cBA | FAB AFD |
AFD DFA | dfe d3 | Bcd cBA | FED D3 :|
|: def afd | afb afe | def afe | dBA ABd |
def afd | afb afe | def afe | dBB B3 :|

